calendar-export-outline.svg

<svg fill="currentColor" viewBox="0 0 24 24"><path d="M19 3h-1V1h-2v2H8V1H6v2H5c-1.1 0-2 .9-2 2v14c0 1.1.9 2 2 2h3l-2-2H5V9h14v10h-1l-2 2h3c1.1 0 2-.9 2-2V5c0-1.1-.9-2-2-2M5 7V5h14v2zm8 11v-6h-2v6H8l4 4 4-4z"/></svg>

<svg  viewBox="0 0 24 24" fill="currentColor"><path  d="M19 3H18V1H16V3H8V1H6V3H5C3.9 3 3 3.9 3 5V19C3 20.1 3.9 21 5 21H8L6 19H5V9H19V19H18L16 21H19C20.1 21 21 20.1 21 19V5C21 3.9 20.1 3 19 3M5 7V5H19V7H5M13 18V12H11V18H8L12 22L16 18H13Z"/></svg>
